icons/src/scalable/default/devices/kdeconnect-symbolic.svg

<svg xmlns="http://www.w3.org/2000/svg" viewBox="0 0 16 16">
  <defs id="defs3051">
    <style type="text/css" id="current-color-scheme">
      .ColorScheme-Text {
        color:#4d4d4d;
      }
      </style>
  </defs>
 <path 
     style="fill:#bebebe;fill-opacity:1;stroke:none" 
     class="ColorScheme-Text"
     d="M 8 2 A 6 6 0 0 0 2 8 A 6 6 0 0 0 8 14 A 6 6 0 0 0 14 8 A 6 6 0 0 0 8 2 z M 6.1445312 4.9003906 C 6.274785 4.9095826 6.3999092 4.9685273 6.4882812 5.0742188 L 7.3769531 6.1386719 C 7.5536729 6.3503274 7.518466 6.6718067 7.2988281 6.8554688 L 7.1230469 7.0039062 L 6.7636719 7.3027344 C 6.7782198 7.3344352 6.7913601 7.3677754 6.8066406 7.4023438 C 6.9515579 7.7286967 7.1498444 8.1771258 7.5585938 8.6660156 C 7.9661012 9.1538421 8.3706727 9.4270243 8.6660156 9.6269531 C 8.6981497 9.648962 8.7282561 9.6695425 8.7578125 9.6894531 L 9.2949219 9.2421875 C 9.5142249 9.0587887 9.8364476 9.0818359 10.013672 9.2929688 L 10.902344 10.355469 C 11.078945 10.567425 11.045389 10.890556 10.826172 11.074219 L 10.523438 11.322266 L 10.517578 11.316406 C 10.391652 11.397989 10.24793 11.462109 10.097656 11.505859 C 9.9578083 11.546274 9.8218968 11.568076 9.6816406 11.572266 C 9.6173185 11.573332 8.128041 11.580386 6.4589844 9.5839844 C 5.2515487 8.1396172 4.8516925 7.1181557 5.0761719 6.0605469 C 5.103145 5.9285693 5.1475263 5.7987638 5.2128906 5.6640625 C 5.2833725 5.5227126 5.3717897 5.392728 5.4746094 5.2832031 L 5.46875 5.2753906 L 5.7675781 5.0234375 C 5.8773971 4.9316066 6.0142775 4.8911986 6.1445312 4.9003906 z "
     />
</svg>

<svg version="1.1" viewBox="0 0 16 16" xmlns="http://www.w3.org/2000/svg">
 <path d="m8 2a6 6 0 0 0-6 6 6 6 0 0 0 6 6 6 6 0 0 0 6-6 6 6 0 0 0-6-6zm-1.8555 2.9004c0.13025 0.009192 0.25538 0.068137 0.34375 0.17383l0.88867 1.0645c0.17672 0.21166 0.14151 0.53313-0.078125 0.7168l-0.17578 0.14844-0.35938 0.29883c0.014548 0.031701 0.027688 0.065041 0.042969 0.099609 0.14492 0.32635 0.3432 0.77478 0.75195 1.2637 0.40751 0.48783 0.81208 0.76101 1.1074 0.96094 0.032134 0.022009 0.06224 0.042589 0.091797 0.0625l0.53711-0.44727c0.2193-0.1834 0.54153-0.16035 0.71875 0.050781l0.88867 1.0625c0.1766 0.21196 0.14304 0.53509-0.076172 0.71875l-0.30273 0.24805-0.00586-0.00586c-0.12593 0.081583-0.26965 0.1457-0.41992 0.18945-0.13985 0.040415-0.27576 0.062217-0.41602 0.066407-0.064322 0.001066-1.5536 0.00812-3.2227-1.9883-1.2074-1.4444-1.6073-2.4658-1.3828-3.5234 0.026973-0.13198 0.071354-0.26178 0.13672-0.39648 0.070482-0.14135 0.1589-0.27133 0.26172-0.38086l-0.0058594-0.0078125 0.29883-0.25195c0.10982-0.091831 0.2467-0.13224 0.37695-0.12305z" fill="#bebebe"/>
</svg>
